data/pieces/fancy/whiteKnight.svg

<svg xmlns="http://www.w3.org/2000/svg" width="1000pt" height="1000pt" viewBox="0 0 1000 1000"><path d="M84 619c0-58 16-79 34-101 21-26 43-58 60-92 16-32 33-62 54-90 10-56 24-95 44-130l-6-47c-1-9-2-23-2-33 0-8 2-26 15-26 18 0 52 50 65 74h24c5-34 15-78 30-78 14 0 23 19 30 36 8 20 14 29 30 43 13 11 19 16 30 16 7 0 13 0 19-1s13-2 21-2c20 0 50 4 50 11v19c47 5 93 15 93 23 0 5-17 11-29 15v3c28 5 100 29 100 42 0 8-22 11-39 13l-1 2c30 12 94 69 94 85 0 8-22 10-37 10l-1 3c28 20 82 80 82 96 0 3-1 4-4 4-4 0-11-1-17-2-7-2-15-3-20-3l-2 3c25 24 73 76 73 96 0 2-1 4-5 4s-11-2-19-5c-7-3-15-6-20-6l-1 2c22 23 53 78 53 97 0 3-2 5-5 5s-9-1-16-5c-5-3-12-6-16-7l-1 2c26 37 50 80 50 96 0 2-1 4-5 4s-11-2-19-5c-5-2-13-4-17-5l-1 2c16 21 31 52 32 79H286c0-74 34-123 86-182 45-51 63-79 76-148l-6-4c-26 17-52 22-72 22-16 22-24 28-50 46-25 17-41 36-52 66-12 33-31 64-63 64-29 0-40-8-50-21-36-13-71-35-71-90" style="stroke-width:2;stroke-linecap:butt;stroke-linejoin:miter;stroke:#fff;stroke-opacity:1;stroke-miterlimit:10;fill-rule:nonzero;fill:#fff;fill-opacity:1"/><path d="M84 619c0-58 16-79 34-101 21-26 43-58 60-92 16-32 33-62 54-90 10-56 24-95 44-130l-6-47c-1-9-2-23-2-33 0-8 2-26 15-26 18 0 52 50 65 74h24c5-34 15-78 30-78 14 0 23 19 30 36 8 20 14 29 30 43 13 11 19 16 30 16 7 0 13 0 19-1s13-2 21-2c20 0 50 4 50 11v19c47 5 93 15 93 23 0 5-17 11-29 15v3c28 5 100 29 100 42 0 8-22 11-39 13l-1 2c30 12 94 69 94 85 0 8-22 10-37 10l-1 3c28 20 82 80 82 96 0 3-1 4-4 4-4 0-11-1-17-2-7-2-15-3-20-3l-2 3c25 24 73 76 73 96 0 2-1 4-5 4s-11-2-19-5c-7-3-15-6-20-6l-1 2c22 23 53 78 53 97 0 3-2 5-5 5s-9-1-16-5c-5-3-12-6-16-7l-1 2c26 37 50 80 50 96 0 2-1 4-5 4s-11-2-19-5c-5-2-13-4-17-5l-1 2c16 21 31 52 32 79H286c0-74 34-123 86-182 45-51 63-79 76-148l-6-4c-26 17-52 22-72 22-16 22-24 28-50 46-25 17-41 36-52 66-12 33-31 64-63 64-29 0-40-8-50-21-36-13-71-35-71-90m23-18c0 60 13 84 49 84 5 0 12-1 12-9 0-1 0-4-1-7s-2-6-2-9c0-11 13-39 28-39 8 0 11 8 11 12 0 9-6 19-13 29-6 9-10 25-10 31 0 10 8 15 15 15 13 0 22-4 30-16 6-10 7-18 8-27 1-13 10-24 27-36 11-8 24-19 30-27 11-14 19-21 39-31 18-9 18-24 18-35 0-2-1-6-2-9q-3-6-3-12c0-4 2-8 6-8 9 0 14 9 16 17 3 12 9 18 19 18 32 0 51-22 70-50 21-30 26-54 26-90 0-28 3-67 20-67 12 0 14 17 14 26 0 29-10 67-24 99l6 4c14-10 18-19 22-40 2-11 7-28 18-28 8 0 14 6 14 12 0 26-32 66-56 92l8 8c10-14 21-28 30-28s12 5 12 11c0 12-18 25-34 34s-28 13-46 13c-5 35-9 58-23 84-15 28-41 60-68 92-43 51-57 80-63 128h514c-22-368-118-573-342-623-10 1-21 4-34 9l-18-63c-3-9-7-20-17-20-6 0-7 10-8 20l-3 58c0 6-6 8-15 9-5 1-17 6-20 15-13 0-20 1-23 9-2 5-7 13-17 13s-17-5-17-13c0-19 7-26 24-42l-6-6c-21 8-50 37-58 70-12 49-16 62-32 84s-28 42-36 59c-11 24-34 66-52 86-22 25-43 49-43 94m15-25c0-9 2-11 8-17s13-17 18-29c6-14 13-24 17-24q9 0 9 9c0 11-16 36-36 54v2c26 0 30 22 30 38 0 20-12 34-26 34-4 0-7-4-7-8s4-8 7-11c5-5 6-12 6-17 0-11-5-18-17-21-5-1-9-4-9-10m132-163c0-46 44-85 83-85 38 0 49 7 49 19 0 6-3 10-10 10-3 0-8-1-11-4-2-2-6-5-11-5s-8 2-12 5c5 7 6 18 6 22 0 19-5 35-30 35-16 0-26-16-29-32h-2c-10 5-15 20-16 27q-3 15-9 15c-3 0-8-1-8-7m42-265 7 40 15-7-18-35zm4 229c0 8 7 12 14 12 9 0 14-6 14-17 0-6-3-14-12-14-13 0-16 10-16 19" style="stroke:none;fill-rule:nonzero;fill:#000;fill-opacity:1"/></svg>

<?xml version="1.0" encoding="UTF-8"?>
<!--
	(c) 2010 Alexey Kryukov

    This work is free; you can redistribute it and/or modify
    it under the terms of the GNU General Public License as published by
    the Free Software Foundation; either version 2 of the License, or
    (at your option) any later version.

    This work is distributed in the hope that it will be useful,
    but WITHOUT ANY WARRANTY; without even the implied warranty of
    MERCHANTABILITY or FITNESS FOR A PARTICULAR PURPOSE.  See the
    GNU General Public License for more details.

    You should have received a copy of the GNU General Public License
    along with this program; if not, write to the Free Software
    Foundation, Inc., 51 Franklin Street, Fifth Floor, Boston, MA 02110-1301 USA
-->
<svg xmlns="http://www.w3.org/2000/svg" xmlns:xlink="http://www.w3.org/1999/xlink" width="1000pt" height="1000pt" viewBox="0 0 1000 1000" version="1.1">
<g id="surface0">
<path style="stroke-width:2;stroke-linecap:butt;stroke-linejoin:miter;stroke:white;stroke-opacity:1;stroke-miterlimit:10;fill-rule:nonzero;fill:white;fill-opacity:1;" d="M 84 619 C 84 561 100 540 118 518 C 139 492 161 460 178 426 C 194 394 211 364 232 336 C 242 280 256 241 276 206 L 270 159 C 269 150 268 136 268 126 C 268 118 270 100 283 100 C 301 100 335 150 348 174 L 372 174 C 377 140 387 96 402 96 C 416 96 425 115 432 132 C 440 152 446 161 462 175 C 475 186 481 191 492 191 C 499 191 505 191 511 190 C 517 189 524 188 532 188 C 552 188 582 192 582 199 L 582 218 C 629 223 675 233 675 241 C 675 246 658 252 646 256 L 646 259 C 674 264 746 288 746 301 C 746 309 724 312 707 314 L 706 316 C 736 328 800 385 800 401 C 800 409 778 411 763 411 L 762 414 C 790 434 844 494 844 510 C 844 513 843 514 840 514 C 836 514 829 513 823 512 C 816 510 808 509 803 509 L 801 512 C 826 536 874 588 874 608 C 874 610 873 612 869 612 C 865 612 858 610 850 607 C 843 604 835 601 830 601 L 829 603 C 851 626 882 681 882 700 C 882 703 880 705 877 705 C 874 705 868 704 861 700 C 856 697 849 694 845 693 L 844 695 C 870 732 894 775 894 791 C 894 793 893 795 889 795 C 885 795 878 793 870 790 C 865 788 857 786 853 785 L 852 787 C 868 808 883 839 884 866 L 286 866 C 286 792 320 743 372 684 C 417 633 435 605 448 536 L 442 532 C 416 549 390 554 370 554 C 354 576 346 582 320 600 C 295 617 279 636 268 666 C 256 699 237 730 205 730 C 176 730 165 722 155 709 C 119 696 84 674 84 619 "/>
<path style="stroke:none;fill-rule:nonzero;fill:black;fill-opacity:1;" d="M 84 619 C 84 561 100 540 118 518 C 139 492 161 460 178 426 C 194 394 211 364 232 336 C 242 280 256 241 276 206 L 270 159 C 269 150 268 136 268 126 C 268 118 270 100 283 100 C 301 100 335 150 348 174 L 372 174 C 377 140 387 96 402 96 C 416 96 425 115 432 132 C 440 152 446 161 462 175 C 475 186 481 191 492 191 C 499 191 505 191 511 190 C 517 189 524 188 532 188 C 552 188 582 192 582 199 L 582 218 C 629 223 675 233 675 241 C 675 246 658 252 646 256 L 646 259 C 674 264 746 288 746 301 C 746 309 724 312 707 314 L 706 316 C 736 328 800 385 800 401 C 800 409 778 411 763 411 L 762 414 C 790 434 844 494 844 510 C 844 513 843 514 840 514 C 836 514 829 513 823 512 C 816 510 808 509 803 509 L 801 512 C 826 536 874 588 874 608 C 874 610 873 612 869 612 C 865 612 858 610 850 607 C 843 604 835 601 830 601 L 829 603 C 851 626 882 681 882 700 C 882 703 880 705 877 705 C 874 705 868 704 861 700 C 856 697 849 694 845 693 L 844 695 C 870 732 894 775 894 791 C 894 793 893 795 889 795 C 885 795 878 793 870 790 C 865 788 857 786 853 785 L 852 787 C 868 808 883 839 884 866 L 286 866 C 286 792 320 743 372 684 C 417 633 435 605 448 536 L 442 532 C 416 549 390 554 370 554 C 354 576 346 582 320 600 C 295 617 279 636 268 666 C 256 699 237 730 205 730 C 176 730 165 722 155 709 C 119 696 84 674 84 619 M 107 601 C 107 661 120 685 156 685 C 161 685 168 684 168 676 C 168 675 168 672 167 669 C 166 666 165 663 165 660 C 165 649 178 621 193 621 C 201 621 204 629 204 633 C 204 642 198 652 191 662 C 185 671 181 687 181 693 C 181 703 189 708 196 708 C 209 708 218 704 226 692 C 232 682 233 674 234 665 C 235 652 244 641 261 629 C 272 621 285 610 291 602 C 302 588 310 581 330 571 C 348 562 348 547 348 536 C 348 534 347 530 346 527 C 344 523 343 519 343 515 C 343 511 345 507 349 507 C 358 507 363 516 365 524 C 368 536 374 542 384 542 C 416 542 435 520 454 492 C 475 462 480 438 480 402 C 480 374 483 335 500 335 C 512 335 514 352 514 361 C 514 390 504 428 490 460 L 496 464 C 510 454 514 445 518 424 C 520 413 525 396 536 396 C 544 396 550 402 550 408 C 550 434 518 474 494 500 L 502 508 C 512 494 523 480 532 480 C 541 480 544 485 544 491 C 544 503 526 516 510 525 C 494 534 482 538 464 538 C 459 573 455 596 441 622 C 426 650 400 682 373 714 C 330 765 316 794 310 842 L 824 842 C 802 474 706 269 482 219 C 472 220 461 223 448 228 L 430 165 C 427 156 423 145 413 145 C 407 145 406 155 405 165 L 402 223 C 402 229 396 231 387 232 C 382 233 370 238 367 247 C 354 247 347 248 344 256 C 342 261 337 269 327 269 C 317 269 310 264 310 256 C 310 237 317 230 334 214 L 328 208 C 307 216 278 245 270 278 C 258 327 254 340 238 362 C 222 384 210 404 202 421 C 191 445 168 487 150 507 C 128 532 107 556 107 601 M 122 576 C 122 567 124 565 130 559 C 136 553 143 542 148 530 C 154 516 161 506 165 506 C 171 506 174 509 174 515 C 174 526 158 551 138 569 L 138 571 C 164 571 168 593 168 609 C 168 629 156 643 142 643 C 138 643 135 639 135 635 C 135 631 139 627 142 624 C 147 619 148 612 148 607 C 148 596 143 589 131 586 C 126 585 122 582 122 576 M 254 413 C 254 367 298 328 337 328 C 375 328 386 335 386 347 C 386 353 383 357 376 357 C 373 357 368 356 365 353 C 363 351 359 348 354 348 C 349 348 346 350 342 353 C 347 360 348 371 348 375 C 348 394 343 410 318 410 C 302 410 292 394 289 378 L 287 378 C 277 383 272 398 271 405 C 269 415 266 420 262 420 C 259 420 254 419 254 413 M 296 148 L 303 188 L 318 181 L 300 146 L 296 148 M 300 377 C 300 385 307 389 314 389 C 323 389 328 383 328 372 C 328 366 325 358 316 358 C 303 358 300 368 300 377 "/>
</g>
</svg>
